X:48
T:My Love with the Yellow Locks
T:Cail\'in na Gruaige Bu\'i
T:Campbells are Coming, The
R:slip jig
D:Michael Tubridy: The Eagle's Whistle
Z:id:hn-slipjig-48
M:9/8
K:G
~G3 GAB E2D|GAB d2d dBA|GAB GAB E2D|B2e edB dBA|
GAB GAB E2D|GAB d2d dBA|GAB GAB E2D|B2e edB dBA||
|:Bee ~e2f ~g3|Bee edB dBA|Bee ~e2f ~g3|agf gfe dBA:|
<end>
<start>
